symbolic/48x48/places/folder-brown-templates-open.svg

<svg xmlns="http://www.w3.org/2000/svg" width="48" height="48" version="1"><rect style="opacity:.2" width="40" height="26" x="4" y="17" rx="2" ry="2"/><path style="fill:#957552" d="M4 34c0 1.108.892 2 2 2h36c1.108 0 2-.892 2-2V12c0-1.108-.892-2-2-2H24c-3 0-4-4-7-4H6c-1.108 0-2 .892-2 2"/><rect style="opacity:.2" width="40" height="22" x="4" y="19" rx="2" ry="2"/><rect style="fill:#b2bfd9" width="36" height="16" x="6" y="13" rx="2" ry="2"/><rect style="fill:#ae8e6c" width="40" height="22" x="4" y="20" rx="2" ry="2"/><path style="opacity:.1;fill:#f4f4f7" d="M6 6c-1.108 0-2 .892-2 2v1c0-1.108.892-2 2-2h11c3 0 4 4 7 4h18c1.108 0 2 .892 2 2v-1c0-1.108-.892-2-2-2H24c-3 0-4-4-7-4z"/><path style="fill:#3d3226" d="M19 24c-.554 0-1 .446-1 1v9h1v-1h1v-7h5v3h3v9h1v-1h1v-9l-4-4zm10 14v1h1v-1zm-1 0h-1v1h1zm-1 0v-1h-1v1zm-1 0h-1v1h1zm-1 0v-1h-1v1zm-1 0h-1v1h1zm-1 0v-1h-1v1zm-1 0h-1v1h1zm-1 0v-1h-1v1zm-1 0h-1v1h1zm-1 0v-1h-1v1zm0-1h1v-1h-1zm0-1v-1h-1v1zm0-1h1v-1h-1z"/></svg>

<svg xmlns="http://www.w3.org/2000/svg" width="48" height="48" version="1">
 <rect style="opacity:0.2" width="40" height="26" x="4" y="17" rx="2" ry="2"/>
 <path style="fill:#957552" d="M 4,34 C 4,35.108 4.892,36 6,36 H 42 C 43.108,36 44,35.108 44,34 V 12 C 44,10.892 43.108,10 42,10 H 24 C 21,10 20,6 17,6 H 6 C 4.892,6 4,6.892 4,8"/>
 <rect style="opacity:0.2" width="40" height="22" x="4" y="19" rx="2" ry="2"/>
 <rect style="fill:#b2bfd9" width="36" height="16" x="6" y="13" rx="2" ry="2"/>
 <rect style="fill:#ae8e6c" width="40" height="22" x="4" y="20" rx="2" ry="2"/>
 <path style="opacity:0.1;fill:#f4f4f7" d="M 6,6 C 4.892,6 4,6.892 4,8 V 9 C 4,7.892 4.892,7 6,7 H 17 C 20,7 21,11 24,11 H 42 C 43.108,11 44,11.892 44,13 V 12 C 44,10.892 43.108,10 42,10 H 24 C 21,10 20,6 17,6 Z"/>
 <path style="fill:#3d3226" d="M 19,24 C 18.446,24 18,24.446 18,25 V 34 H 19 V 33 H 20 V 26 H 25 V 29 H 28 V 37 38 H 29 V 37 H 30 V 28 L 26,24 Z M 29,38 V 39 H 30 V 38 Z M 28,38 H 27 V 39 H 28 Z M 27,38 V 37 H 26 V 38 Z M 26,38 H 25 V 39 H 26 Z M 25,38 V 37 H 24 V 38 Z M 24,38 H 23 V 39 H 24 Z M 23,38 V 37 H 22 V 38 Z M 22,38 H 21 V 39 H 22 Z M 21,38 V 37 H 20 V 38 Z M 20,38 H 19 V 39 H 20 Z M 19,38 V 37 H 18 V 38 Z M 19,37 H 20 V 36 H 19 Z M 19,36 V 35 H 18 V 36 Z M 19,35 H 20 V 34 H 19 Z"/>
</svg>
